svgs/find_my_device.svg

<svg width="192" height="192" viewBox="0 0 192 192" fill="none" xmlns="http://www.w3.org/2000/svg">
<path fill-rule="evenodd" clip-rule="evenodd" d="M96.0001 22C79.1093 22 62.218 28.4366 49.3306 41.3097C23.5565 67.056 23.5565 108.799 49.3306 134.545C56.4435 141.65 62.6661 145.45 69.3206 149.513L69.3223 149.514L69.3237 149.515C76.9735 154.187 85.1956 159.208 96.0001 170C106.804 159.208 115.027 154.187 122.676 149.515L122.678 149.515C129.333 145.45 135.556 141.65 142.67 134.545C168.443 108.798 168.443 67.056 142.67 41.3097C129.782 28.4366 112.891 22 96.0001 22Z" stroke="black" stroke-width="12" stroke-linejoin="round"/>
<path d="M74 118V58C74 55.7909 75.7909 54 78 54H114C116.209 54 118 55.7909 118 58V118C118 120.209 116.209 122 114 122H78C75.7909 122 74 120.209 74 118Z" stroke="black" stroke-width="12" stroke-linecap="round"/>
</svg>

<svg width="192" height="192" fill="none" xmlns="http://www.w3.org/2000/svg"><path clip-rule="evenodd" d="M96 22c-16.89 0-33.782 6.437-46.67 19.31-25.773 25.746-25.773 67.489 0 93.235 7.114 7.105 13.336 10.905 19.99 14.968l.002.001.002.001C76.974 154.187 85.196 159.208 96 170c10.804-10.792 19.027-15.813 26.676-20.485h.002c6.655-4.065 12.878-7.865 19.992-14.97 25.773-25.747 25.773-67.489 0-93.235C129.782 28.437 112.891 22 96 22z" stroke="#000" stroke-width="12" stroke-linejoin="round"/><path d="M74 118V58a4 4 0 0 1 4-4h36a4 4 0 0 1 4 4v60a4 4 0 0 1-4 4H78a4 4 0 0 1-4-4z" stroke="#000" stroke-width="12" stroke-linecap="round"/></svg>
